X:1
T:Title
%%score { 1 | 2 }
L:1/8
M:4/4
K:G
V:1 treble nm="Grand Piano"
V:2 bass 
V:1
 z4 z2[Q:1/4=104] D2 | GGGG GBAG | E2 G2 D4 | d3 B G2 B2 | [FA]6 D2 | GGGG GBAG | E2 G2 D4 | %7
 d3 G [GB]2 [FA]2 | G6 z2 | [Ec]3 [Ec] [Ec]2 [Ec]2 | B6 z2 | d3 B d2 B2 | [FA]6 z2 | %13
 ddBA G2 [DG][DG] | [EA][EG]EG D4 | d3 G [GB]2 [FA]2 |[M:3/4] G6 |] %17
V:2
 z4 z2 [G,B,]2 | [G,B,D][G,B,D][G,B,D][G,B,D][K:treble] [G,B,D][G,DG][K:bass][G,CD][G,B,D] | %2
 [C,G,C]2 [E,G,C]2 [G,B,]4 | [G,B,G]3 [G,DG] [G,B,]2 [G,DG]2 | [D,D]6 [G,B,]2 | %5
 [G,B,D][G,B,D][G,B,D][K:treble][G,B,D] [G,B,D][G,DG][G,CD][G,B,D] | [C,G,C]2 [E,G,C]2 [G,B,]4 | %7
 [G,B,D]3 [G,B,D] [D,D]2 [D,C]2 | [G,B,]6 z2 | [C,G,]3 [C,G,] [C,G,]2 [C,G,]2 | [G,D]6 z2 | %11
 [G,B,G]3 [G,DG] [G,B,G]2 [G,DG]2 | [D,D]6 z2 | %13
 [G,B,G][G,B,G][G,DG][G,CG] [G,B,]2[K:bass] [B,,B,][B,,G,] | [C,G,][C,G,][C,G,C][E,G,C] [G,B,]4 | %15
 [G,B,D]3 [G,B,D] [D,D]2 [D,C]2 |[M:3/4] [G,B,]6 |] %17

